X: 1867
T: Arm In The Cow, The
R: jig
M: 6/8
K: Bminor
e|f2d Bcd|e2c ABc|dBB FBB|GBB FBB|
fgf Bcd|efe edc|dcB ~f3|fge bag|
f2d Bcd|e2c ABc|dBB FBB|GBB FBB|
fgf Bcd|efe edc|BAG ~F3|EFG ~F3||
K: Emin
~E3 ~B3|BcA edc|B2e efg|f2b- baf|
~g3 fgf|g/f/ed cBA|B3 eBe|f2B AGF|
~E3 ~B3|BcA edc|B2e efg|f2b- baf|
~g3 fze-|e2d cBA|~B3 E2B|cBA B2e||

